src/lib/packages/icons/src/assets/filled/signal-stream.svg

<svg width="24" height="24" viewBox="0 0 24 24" fill="none" xmlns="http://www.w3.org/2000/svg">
<path d="M15.54 16.5401C15.286 16.5401 15.031 16.444 14.837 16.251C14.444 15.862 14.441 15.23 14.829 14.837C15.584 14.074 16 13.066 16 12C16 10.934 15.584 9.92613 14.829 9.16313C14.44 8.77013 14.444 8.13806 14.837 7.74906C15.229 7.36006 15.863 7.36512 16.251 7.75712C17.379 8.89712 18 10.404 18 12C18 13.596 17.379 15.103 16.251 16.243C16.056 16.441 15.798 16.5401 15.54 16.5401ZM9.16296 16.251C9.55596 15.862 9.55902 15.23 9.17102 14.837C8.41602 14.074 8 13.066 8 12C8 10.934 8.41602 9.92613 9.17102 9.16313C9.56002 8.77013 9.55596 8.13806 9.16296 7.74906C8.77096 7.36006 8.13702 7.36512 7.74902 7.75712C6.62102 8.89712 6 10.404 6 12C6 13.596 6.62102 15.103 7.74902 16.243C7.94402 16.441 8.20196 16.5401 8.45996 16.5401C8.71396 16.5401 8.96896 16.444 9.16296 16.251ZM19.432 18.6709C21.088 16.8409 22 14.472 22 12C22 9.52804 21.088 7.15814 19.432 5.32914C19.062 4.92014 18.429 4.88807 18.02 5.25907C17.61 5.63007 17.579 6.26216 17.95 6.67216C19.272 8.13216 20.001 10.025 20.001 12.001C20.001 13.977 19.272 15.8691 17.95 17.3301C17.579 17.7401 17.61 18.372 18.02 18.743C18.211 18.916 18.452 19.002 18.691 19.002C18.963 19 19.234 18.8889 19.432 18.6709ZM5.97998 18.741C6.38998 18.37 6.42105 17.7379 6.05005 17.3279C4.72805 15.8679 3.99902 13.9751 3.99902 11.9991C3.99902 10.0231 4.72805 8.13096 6.05005 6.66996C6.42105 6.25996 6.38998 5.62812 5.97998 5.25712C5.57098 4.88612 4.93799 4.91794 4.56799 5.32694C2.91199 7.15694 2 9.52609 2 11.9981C2 14.4701 2.91199 16.84 4.56799 18.669C4.76499 18.887 5.03696 18.9981 5.30896 18.9981C5.54896 19.0001 5.78898 18.915 5.97998 18.741ZM12 10.5C11.173 10.5 10.5 11.173 10.5 12C10.5 12.827 11.173 13.5 12 13.5C12.827 13.5 13.5 12.827 13.5 12C13.5 11.173 12.827 10.5 12 10.5Z" fill="currentColor"/>
</svg>

<svg xmlns="http://www.w3.org/2000/svg" width="24" height="24" fill="none"><path fill="currentColor" d="M15.54 16.54a1 1 0 0 1-.711-1.703A4.012 4.012 0 0 0 16 12a4.012 4.012 0 0 0-1.171-2.837.999.999 0 1 1 1.422-1.406A5.998 5.998 0 0 1 18 12a5.999 5.999 0 0 1-1.749 4.243.995.995 0 0 1-.711.297Zm-6.377-.289a1 1 0 0 0 .008-1.414A4.012 4.012 0 0 1 8 12c0-1.066.416-2.074 1.171-2.837a.999.999 0 1 0-1.422-1.406A5.998 5.998 0 0 0 6 12c0 1.596.621 3.103 1.749 4.243a.995.995 0 0 0 .711.297.994.994 0 0 0 .703-.289Zm10.269 2.42A9.923 9.923 0 0 0 22 12a9.92 9.92 0 0 0-2.568-6.67 1 1 0 1 0-1.482 1.342 7.924 7.924 0 0 1 2.051 5.329 7.927 7.927 0 0 1-2.051 5.33 1 1 0 1 0 1.482 1.34Zm-13.452.07a1 1 0 0 0 .07-1.413 7.924 7.924 0 0 1-2.051-5.329c0-1.976.729-3.868 2.051-5.329a1 1 0 1 0-1.482-1.343A9.923 9.923 0 0 0 2 11.998a9.92 9.92 0 0 0 2.568 6.671c.197.218.469.33.741.33a.98.98 0 0 0 .671-.258ZM12 10.5c-.827 0-1.5.673-1.5 1.5s.673 1.5 1.5 1.5 1.5-.673 1.5-1.5-.673-1.5-1.5-1.5Z"/></svg>
